X: 10856
T: Drink The Worts And Spill The Beer
R: slip jig
M: 9/8
K: Amixolydian
|:"D"A2 d dcd A3|"G"Bcd efg "A"fed|"D"A2 d dcd "G"G2 B|"A"Agf edc "D"d3:|
"D"afd dcd "F#m"afd|"G"Bcd "A"efd cBA|1 "D"afd dcd "F#m"afd|"G"Bcd "A"edc "D"d3:|2 "D"A2 d dcd "G"G2 B|"A"Agf edc "D"d3||

